modules/themify-icons/icons/widget.svg

<?xml version="1.0" encoding="utf-8"?>
<!-- Generated by IcoMoon.io -->
<!DOCTYPE svg PUBLIC "-//W3C//DTD SVG 1.1//EN" "http://www.w3.org/Graphics/SVG/1.1/DTD/svg11.dtd">
<svg version="1.1" xmlns="http://www.w3.org/2000/svg" xmlns:xlink="http://www.w3.org/1999/xlink" width="17" height="17" viewBox="0 0 17 17">
<g>
</g>
	<path d="M2 0h1v1h-1v-1zM5 0h-1v1h1v-1zM7 0h-1v1h1v-1zM9 0h-1v1h1v-1zM11 0h-1v1h1v-1zM13 0h-1v1h1v-1zM14 1h1v-1h-1v1zM2 17h1v-1h-1v1zM4 17h1v-1h-1v1zM6 17h1v-1h-1v1zM8 17h1v-1h-1v1zM10 17h1v-1h-1v1zM12 17h1v-1h-1v1zM14 17h1v-1h-1v1zM16 0v1h1v-1h-1zM16 3h1v-1h-1v1zM16 5h1v-1h-1v1zM16 7h1v-1h-1v1zM16 9h1v-1h-1v1zM16 11h1v-1h-1v1zM16 13h1v-1h-1v1zM16 15h1v-1h-1v1zM16 17h1v-1h-1v1zM0 1h1v-1h-1v1zM0 3h1v-1h-1v1zM0 5h1v-1h-1v1zM0 7h1v-1h-1v1zM0 9h1v-1h-1v1zM0 11h1v-1h-1v1zM0 13h1v-1h-1v1zM0 15h1v-1h-1v1zM0 17h1v-1h-1v1zM13.465 7.929c0.021 0.187 0.035 0.377 0.035 0.571s-0.014 0.384-0.035 0.571l-0.037 0.328-1.439 0.432c-0.025 0.065-0.051 0.129-0.080 0.193l0.711 1.322-0.205 0.258c-0.238 0.299-0.511 0.572-0.811 0.811l-0.258 0.206-1.322-0.712c-0.063 0.028-0.128 0.055-0.193 0.080l-0.431 1.438-0.327 0.038c-0.188 0.022-0.379 0.035-0.573 0.035s-0.385-0.013-0.573-0.035l-0.327-0.038-0.432-1.438c-0.065-0.025-0.129-0.051-0.193-0.080l-1.323 0.711-0.258-0.205c-0.299-0.238-0.572-0.511-0.81-0.811l-0.204-0.257 0.711-1.322c-0.029-0.065-0.055-0.129-0.080-0.194l-1.439-0.432-0.037-0.328c-0.021-0.187-0.035-0.377-0.035-0.571s0.014-0.384 0.035-0.571l0.037-0.328 1.439-0.432c0.025-0.065 0.051-0.129 0.080-0.193l-0.711-1.322 0.204-0.258c0.237-0.298 0.51-0.571 0.811-0.811l0.258-0.206 1.322 0.712c0.063-0.029 0.128-0.055 0.193-0.080l0.432-1.438 0.327-0.038c0.376-0.044 0.77-0.044 1.146 0l0.327 0.038 0.432 1.438c0.065 0.024 0.129 0.051 0.193 0.080l1.322-0.712 0.258 0.206c0.299 0.238 0.572 0.511 0.81 0.81l0.205 0.258-0.711 1.323c0.028 0.063 0.055 0.128 0.080 0.192l1.439 0.433 0.037 0.328zM12.5 8.5c0-0.045-0.001-0.090-0.003-0.135l-1.303-0.391-0.076-0.26c-0.052-0.175-0.123-0.348-0.211-0.512l-0.127-0.237 0.642-1.193c-0.062-0.066-0.126-0.131-0.193-0.193l-1.192 0.642-0.239-0.128c-0.164-0.088-0.337-0.16-0.513-0.212l-0.26-0.077-0.39-1.301c-0.089-0.004-0.181-0.004-0.27 0l-0.39 1.302-0.26 0.077c-0.178 0.053-0.35 0.124-0.512 0.211l-0.237 0.129-1.194-0.643c-0.067 0.063-0.131 0.127-0.193 0.193l0.642 1.193-0.128 0.237c-0.088 0.164-0.16 0.336-0.212 0.514l-0.077 0.259-1.301 0.39c-0.002 0.045-0.003 0.090-0.003 0.135s0.001 0.090 0.003 0.134l1.302 0.391 0.077 0.26c0.052 0.177 0.124 0.35 0.212 0.514l0.127 0.237-0.642 1.193c0.062 0.066 0.126 0.131 0.193 0.193l1.193-0.642 0.237 0.127c0.164 0.088 0.337 0.16 0.513 0.212l0.26 0.077 0.391 1.302c0.089 0.004 0.181 0.004 0.27 0l0.391-1.301 0.259-0.077c0.177-0.052 0.35-0.124 0.514-0.212l0.237-0.127 1.192 0.642c0.067-0.062 0.131-0.127 0.193-0.193l-0.642-1.193 0.127-0.237c0.088-0.164 0.16-0.336 0.212-0.514l0.077-0.259 1.301-0.391c0.002-0.046 0.003-0.091 0.003-0.136z" fill="#000000" />
</svg>

<svg xmlns="http://www.w3.org/2000/svg" width="17" height="17" viewBox="0 0 17 17"><path d="M2 0h1v1H2V0zm3 0H4v1h1V0zm2 0H6v1h1V0zm2 0H8v1h1V0zm2 0h-1v1h1V0zm2 0h-1v1h1V0zm1 1h1V0h-1v1zM2 17h1v-1H2v1zm2 0h1v-1H4v1zm2 0h1v-1H6v1zm2 0h1v-1H8v1zm2 0h1v-1h-1v1zm2 0h1v-1h-1v1zm2 0h1v-1h-1v1zm2-17v1h1V0h-1zm0 3h1V2h-1v1zm0 2h1V4h-1v1zm0 2h1V6h-1v1zm0 2h1V8h-1v1zm0 2h1v-1h-1v1zm0 2h1v-1h-1v1zm0 2h1v-1h-1v1zm0 2h1v-1h-1v1zM0 1h1V0H0v1zm0 2h1V2H0v1zm0 2h1V4H0v1zm0 2h1V6H0v1zm0 2h1V8H0v1zm0 2h1v-1H0v1zm0 2h1v-1H0v1zm0 2h1v-1H0v1zm0 2h1v-1H0v1zm13.465-9.071c.021.187.035.377.035.571s-.014.384-.035.571l-.037.328-1.439.432a3.569 3.569 0 0 1-.08.193l.711 1.322-.205.258a5.099 5.099 0 0 1-.811.811l-.258.206-1.322-.712a4.114 4.114 0 0 1-.193.08L9.4 13.427l-.327.038c-.188.022-.379.035-.573.035s-.385-.013-.573-.035l-.327-.038-.432-1.438a3.569 3.569 0 0 1-.193-.08l-1.323.711-.258-.205a5.052 5.052 0 0 1-.81-.811l-.204-.257.711-1.322a3.97 3.97 0 0 1-.08-.194l-1.439-.432-.037-.328C3.514 8.884 3.5 8.694 3.5 8.5s.014-.384.035-.571l.037-.328 1.439-.432c.025-.065.051-.129.08-.193L4.38 5.654l.204-.258c.237-.298.51-.571.811-.811l.258-.206 1.322.712c.063-.029.128-.055.193-.08L7.6 3.573l.327-.038c.376-.044.77-.044 1.146 0l.327.038.432 1.438c.065.024.129.051.193.08l1.322-.712.258.206c.299.238.572.511.81.81l.205.258-.711 1.323c.028.063.055.128.08.192l1.439.433.037.328zM12.5 8.5l-.003-.135-1.303-.391-.076-.26a2.735 2.735 0 0 0-.211-.512l-.127-.237.642-1.193a3.903 3.903 0 0 0-.193-.193l-1.192.642-.239-.128a2.72 2.72 0 0 0-.513-.212l-.26-.077-.39-1.301a3.039 3.039 0 0 0-.27 0l-.39 1.302-.26.077a2.73 2.73 0 0 0-.512.211l-.237.129-1.194-.643a4.39 4.39 0 0 0-.193.193l.642 1.193-.128.237c-.088.164-.16.336-.212.514l-.077.259-1.301.39a3.04 3.04 0 0 0 0 .269l1.302.391.077.26c.052.177.124.35.212.514l.127.237-.642 1.193c.062.066.126.131.193.193l1.193-.642.237.127c.164.088.337.16.513.212l.26.077.391 1.302c.089.004.181.004.27 0l.391-1.301.259-.077c.177-.052.35-.124.514-.212l.237-.127 1.192.642c.067-.062.131-.127.193-.193l-.642-1.193.127-.237c.088-.164.16-.336.212-.514l.077-.259 1.301-.391A3.12 3.12 0 0 0 12.5 8.5z"/></svg>
